X: 35076
T: Rolling In The Ryegrass
R: reel
M: 4/4
K: Dmajor
|:A3F DEFA|G2AG DGBG|F3F DEFA|BAAF EDD2:|
|:A3d f2ef|g2fd BddB|ABde f3a|afdf eddB:|

